Newaita-dark/apps/48/diaspora.svg

<svg height="48pt" viewBox="0 0 48 48" width="48pt" xmlns="http://www.w3.org/2000/svg" xmlns:xlink="http://www.w3.org/1999/xlink"><linearGradient id="a"><stop offset="0" stop-opacity=".313726"/><stop offset=".222222" stop-opacity=".27451"/><stop offset="1" stop-opacity="0"/></linearGradient><radialGradient id="b" cx="450.908936" cy="189.579361" gradientTransform="matrix(.00000026 -.117199 -.210958 -.00000015 66.784728 95.392994)" gradientUnits="userSpaceOnUse" r="21.166656" xlink:href="#a"/><radialGradient id="c" cx="450.908936" cy="189.579361" gradientTransform="matrix(-.00000026 .117199 .210958 .00000015 -19.155178 -11.291223)" gradientUnits="userSpaceOnUse" r="21.166656" xlink:href="#a"/><radialGradient id="d" cx="450.908936" cy="189.579361" gradientTransform="matrix(-.00000026 -.117199 .210958 -.00000015 -19.155178 95.392994)" gradientUnits="userSpaceOnUse" r="21.166656" xlink:href="#a"/><radialGradient id="e" cx="450.908936" cy="189.579361" gradientTransform="matrix(.00000026 .117199 -.210958 .00000015 66.784725 -11.291224)" gradientUnits="userSpaceOnUse" r="21.166656" xlink:href="#a"/><linearGradient id="f" gradientTransform="matrix(.0200401 0 0 .093759 18.698079 20.158175)" gradientUnits="userSpaceOnUse" x1="255.323059" x2="255.323044" y1="233.5" y2="254.666656"><stop offset="0" stop-opacity=".27451"/><stop offset="1" stop-opacity="0"/></linearGradient><linearGradient id="g" gradientUnits="userSpaceOnUse" x1="254" x2="254" y1="-168.666672" y2="233.5"><stop offset="0" stop-color="#616161"/><stop offset="1" stop-color="#424242"/></linearGradient><linearGradient id="h" gradientUnits="userSpaceOnUse" x1="23.814816" x2="23.814816" y1="42.05096580616" y2="4.34417306195"><stop offset="0" stop-color="#bdbdbd"/><stop offset="1" stop-color="#e0e0e0"/></linearGradient><path d="m27.289062 42.050781h3.96875v-1.984375h-3.96875zm0 0" fill="url(#b)"/><path d="m20.339844 42.050781h-3.96875v1.984375h3.96875zm0 0" fill="url(#c)"/><path d="m20.339844 42.050781h-3.96875v-1.984375h3.96875zm0 0" fill="url(#d)"/><path d="m27.289062 42.050781h3.96875v1.984375h-3.96875zm0 0" fill="url(#e)"/><path d="m20.339844 41.554688h6.949218v2.480468h-6.949218zm0 0" fill="url(#f)"/><path d="m254.017409-168.671091c111.031064 0 201.064133 90.033069 201.064133 201.105795 0 111.031064-90.033069 201.064133-201.064133 201.064133-111.072726 0-201.105795-90.033069-201.105795-201.064133 0-111.072726 90.033069-201.105795 201.105795-201.105795zm0 0" fill="url(#g)" stroke="#333" stroke-linecap="round" stroke-width="3" transform="matrix(.093759 0 0 .093759 0 20.158175)"/><path d="m23.816406 42.050781c-10.445312 0-18.855468-8.410156-18.855468-18.851562 0-.0625 0-.125 0-.1875.101562 10.359375 8.472656 18.667969 18.855468 18.667969 10.382813 0 18.753906-8.308594 18.851563-18.667969v.1875c0 10.441406-8.410157 18.851562-18.851563 18.851562zm0 0" fill-opacity=".196078"/><path d="m23.816406 4.34375c-10.445312 0-18.855468 8.410156-18.855468 18.855469v.183593c.101562-10.359374 8.472656-18.667968 18.855468-18.667968 10.382813 0 18.753906 8.308594 18.851563 18.667968 0-.0625 0-.125 0-.183593 0-10.445313-8.410157-18.855469-18.851563-18.855469zm0 0" fill="#fff" fill-opacity=".392157"/><path d="m23.816406 4.203125c-10.523437 0-18.996094 8.472656-18.996094 18.996094 0 10.519531 8.472657 18.992187 18.996094 18.992187 10.519532 0 18.992188-8.472656 18.992188-18.992187 0-10.523438-8.472656-18.996094-18.992188-18.996094zm0 .28125c10.367188 0 18.710938 8.34375 18.710938 18.714844 0 10.367187-8.34375 18.710937-18.710938 18.710937-10.371094 0-18.714844-8.34375-18.714844-18.710937 0-10.371094 8.34375-18.714844 18.714844-18.714844zm0 0" fill="#212121"/><path d="m22.824219 11.289062c-.550781 0-.992188.445313-.992188.992188v8.101562l-7.496093-2.671874c-.519532-.183594-1.085938.085937-1.269532.601562l-.664062 1.871094c-.1875.519531.082031 1.082031.601562 1.269531l7.621094 2.714844-5.054688 6.4375c-.335937.429687-.261718 1.050781.167969 1.390625l1.5625 1.226562c.433594.339844 1.054688.265625 1.394531-.167968l5.15625-6.570313 5.160157 6.570313c.339843.433593.960937.507812 1.390625.167968l1.5625-1.226562c.433594-.339844.507812-.960938.167968-1.390625l-5.054687-6.4375 7.710937-2.746094c.515626-.183594.785157-.75.601563-1.269531l-.667969-1.867188c-.183594-.519531-.75-.789062-1.265625-.601562l-7.65625 2.726562v-8.128906c0-.546875-.445312-.992188-.992187-.992188zm0 0" fill="url(#h)"/><path d="m22.824219 11.289062c-.550781 0-.992188.445313-.992188.992188v.746094c0-.550782.441407-.992188.992188-.992188h1.984375c.546875 0 .992187.441406.992187.992188v-.746094c0-.546875-.445312-.992188-.992187-.992188zm10.972656 6.335938c-.113281 0-.226563.015625-.339844.058594l-7.65625 2.726562v.742188l7.65625-2.726563c.113281-.039062.226563-.058593.339844-.058593.40625.003906.78125.257812.925781.660156l.652344 1.832031c.085938-.21875.097656-.46875.015625-.707031l-.667969-1.867188c-.144531-.40625-.519531-.65625-.925781-.660156zm-19.804687.03125c-.40625 0-.78125.253906-.925782.65625l-.664062 1.871094c-.085938.238281-.074219.488281.011718.703125l.652344-1.828125c.144532-.40625.519532-.65625.925782-.660156.113281 0 .230468.019531.34375.058593l7.496093 2.671875v-.746094l-7.496093-2.671874c-.113282-.039063-.230469-.058594-.34375-.054688zm13.695312 7.285156-.609375.21875.457031.582032.152344-.054688 4.445312 5.660156c.058594.074219.105469.15625.140626.242188.128906-.320313.085937-.695313-.140626-.984375zm-7.671875 0-4.445313 5.664063c-.226562.289062-.265624.664062-.136718.984375.03125-.085938.078125-.167969.136718-.242188l4.445313-5.660156.152344.054688.457031-.582032zm0 0" fill="#fff"/><path d="m35.324219 20.988281c-.113281.203125-.296875.371094-.535157.457031l-7.710937 2.746094.609375.773438 7.101562-2.527344c.515626-.1875.785157-.75.601563-1.269531zm-22.859375.027344-.0625.183594c-.1875.515625.082031 1.082031.601562 1.265625l7.011719 2.5.609375-.773438-7.621094-2.71875c-.242187-.082031-.425781-.25-.539062-.457031zm11.386718 5.492187-5.15625 6.570313c-.339843.429687-.960937.507813-1.394531.167969l-1.5625-1.226563c-.101562-.082031-.183593-.179687-.246093-.285156-.242188.421875-.148438.96875.246093 1.277344l1.5625 1.226562c.433594.339844 1.054688.261719 1.394531-.167969l5.15625-6.570312 5.160157 6.570312c.339843.429688.960937.507813 1.390625.167969l1.5625-1.226562c.394531-.308594.492187-.855469.246094-1.277344-.0625.105469-.144532.203125-.246094.285156l-1.5625 1.226563c-.429688.339844-1.050782.261718-1.390625-.167969zm0 0" fill-opacity=".235294"/><path d="m920.069666 455.074677c-22.202605 0-39.996182 17.951042-39.996182 39.996182v326.583004l-302.175884-107.706256c-20.942883-7.400868-43.77535 3.464236-51.176218 24.249654l-26.769099 75.425872c-7.558334 20.942883 3.306771 43.617884 24.249654 51.176218l307.214773 109.438374-203.76008 259.502791c-13.542014 17.321182-10.550174 42.358162 6.771008 56.057642l62.986114 49.4441c17.478647 13.69948 42.515627 10.707639 56.215107-6.771007l207.854178-264.856612 208.011643 264.856612c13.699479 17.478646 38.73646 20.470487 56.057641 6.771007l62.986115-49.4441c17.478647-13.69948 20.470487-38.73646 6.771007-56.057642l-203.76008-259.502791 310.836475-110.698096c20.785417-7.400869 31.650522-30.233335 24.249654-51.176218l-26.926564-75.268407c-7.400869-20.942883-30.233335-31.807988-51.018753-24.249654l-308.631961 109.91077v-327.685261c0-22.04514-17.951042-39.996182-39.996182-39.996182zm0 0" fill="none" stroke="#212121" stroke-linecap="round" stroke-linejoin="round" stroke-width="11.338583" transform="scale(.0248071)"/></svg>

<?xml version="1.0" encoding="UTF-8"?>
<svg xmlns="http://www.w3.org/2000/svg" xmlns:xlink="http://www.w3.org/1999/xlink" width="48pt" height="48pt" viewBox="0 0 48 48" version="1.1">
<defs>
<radialGradient id="radial0" gradientUnits="userSpaceOnUse" cx="450.908936" cy="189.579361" fx="450.908936" fy="189.579361" r="21.166656" gradientTransform="matrix(0.000000261256,-0.117199,-0.210958,-0.000000152308,66.784728,95.392994)">
<stop offset="0" style="stop-color:rgb(0%,0%,0%);stop-opacity:0.313726;"/>
<stop offset="0.222222" style="stop-color:rgb(0%,0%,0%);stop-opacity:0.27451;"/>
<stop offset="1" style="stop-color:rgb(0%,0%,0%);stop-opacity:0;"/>
</radialGradient>
<radialGradient id="radial1" gradientUnits="userSpaceOnUse" cx="450.908936" cy="189.579361" fx="450.908936" fy="189.579361" r="21.166656" gradientTransform="matrix(-0.000000261256,0.117199,0.210958,0.000000152308,-19.155178,-11.291223)">
<stop offset="0" style="stop-color:rgb(0%,0%,0%);stop-opacity:0.313726;"/>
<stop offset="0.222222" style="stop-color:rgb(0%,0%,0%);stop-opacity:0.27451;"/>
<stop offset="1" style="stop-color:rgb(0%,0%,0%);stop-opacity:0;"/>
</radialGradient>
<radialGradient id="radial2" gradientUnits="userSpaceOnUse" cx="450.908936" cy="189.579361" fx="450.908936" fy="189.579361" r="21.166656" gradientTransform="matrix(-0.000000261256,-0.117199,0.210958,-0.000000152308,-19.155178,95.392994)">
<stop offset="0" style="stop-color:rgb(0%,0%,0%);stop-opacity:0.313726;"/>
<stop offset="0.222222" style="stop-color:rgb(0%,0%,0%);stop-opacity:0.27451;"/>
<stop offset="1" style="stop-color:rgb(0%,0%,0%);stop-opacity:0;"/>
</radialGradient>
<radialGradient id="radial3" gradientUnits="userSpaceOnUse" cx="450.908936" cy="189.579361" fx="450.908936" fy="189.579361" r="21.166656" gradientTransform="matrix(0.000000261256,0.117199,-0.210958,0.000000152308,66.784725,-11.291224)">
<stop offset="0" style="stop-color:rgb(0%,0%,0%);stop-opacity:0.313726;"/>
<stop offset="0.222222" style="stop-color:rgb(0%,0%,0%);stop-opacity:0.27451;"/>
<stop offset="1" style="stop-color:rgb(0%,0%,0%);stop-opacity:0;"/>
</radialGradient>
<linearGradient id="linear0" gradientUnits="userSpaceOnUse" x1="255.323059" y1="233.5" x2="255.323044" y2="254.666656" gradientTransform="matrix(0.0200401,0,0,0.093759,18.698079,20.158175)">
<stop offset="0" style="stop-color:rgb(0%,0%,0%);stop-opacity:0.27451;"/>
<stop offset="1" style="stop-color:rgb(0%,0%,0%);stop-opacity:0;"/>
</linearGradient>
<linearGradient id="linear1" gradientUnits="userSpaceOnUse" x1="254" y1="-168.666672" x2="254" y2="233.5" gradientTransform="matrix(1,0,0,1,0,0)">
<stop offset="0" style="stop-color:rgb(38.039216%,38.039216%,38.039216%);stop-opacity:1;"/>
<stop offset="1" style="stop-color:rgb(25.882354%,25.882354%,25.882354%);stop-opacity:1;"/>
</linearGradient>
<linearGradient id="linear2" gradientUnits="userSpaceOnUse" x1="960" y1="1695.118164" x2="960" y2="175.118134" gradientTransform="matrix(0.0248071,0,0,0.0248071,0,0.00000000000000282)">
<stop offset="0" style="stop-color:rgb(74.117649%,74.117649%,74.117649%);stop-opacity:1;"/>
<stop offset="1" style="stop-color:rgb(87.843138%,87.843138%,87.843138%);stop-opacity:1;"/>
</linearGradient>
</defs>
<g id="surface1">
<path style=" stroke:none;fill-rule:nonzero;fill:url(#radial0);" d="M 27.289062 42.050781 L 31.257812 42.050781 L 31.257812 40.066406 L 27.289062 40.066406 Z M 27.289062 42.050781 "/>
<path style=" stroke:none;fill-rule:nonzero;fill:url(#radial1);" d="M 20.339844 42.050781 L 16.371094 42.050781 L 16.371094 44.035156 L 20.339844 44.035156 Z M 20.339844 42.050781 "/>
<path style=" stroke:none;fill-rule:nonzero;fill:url(#radial2);" d="M 20.339844 42.050781 L 16.371094 42.050781 L 16.371094 40.066406 L 20.339844 40.066406 Z M 20.339844 42.050781 "/>
<path style=" stroke:none;fill-rule:nonzero;fill:url(#radial3);" d="M 27.289062 42.050781 L 31.257812 42.050781 L 31.257812 44.035156 L 27.289062 44.035156 Z M 27.289062 42.050781 "/>
<path style=" stroke:none;fill-rule:nonzero;fill:url(#linear0);" d="M 20.339844 41.554688 L 27.289062 41.554688 L 27.289062 44.035156 L 20.339844 44.035156 Z M 20.339844 41.554688 "/>
<path style="fill-rule:nonzero;fill:url(#linear1);stroke-width:3;stroke-linecap:round;stroke-linejoin:miter;stroke:rgb(20%,20%,20%);stroke-opacity:1;stroke-miterlimit:4;" d="M 254.017409 -168.671091 C 365.048473 -168.671091 455.081542 -78.638022 455.081542 32.434704 C 455.081542 143.465768 365.048473 233.498837 254.017409 233.498837 C 142.944683 233.498837 52.911614 143.465768 52.911614 32.434704 C 52.911614 -78.638022 142.944683 -168.671091 254.017409 -168.671091 Z M 254.017409 -168.671091 " transform="matrix(0.093759,0,0,0.093759,0,20.158175)"/>
<path style=" stroke:none;fill-rule:nonzero;fill:rgb(0%,0%,0%);fill-opacity:0.196078;" d="M 23.816406 42.050781 C 13.371094 42.050781 4.960938 33.640625 4.960938 23.199219 C 4.960938 23.136719 4.960938 23.074219 4.960938 23.011719 C 5.0625 33.371094 13.433594 41.679688 23.816406 41.679688 C 34.199219 41.679688 42.570312 33.371094 42.667969 23.011719 C 42.667969 23.074219 42.667969 23.136719 42.667969 23.199219 C 42.667969 33.640625 34.257812 42.050781 23.816406 42.050781 Z M 23.816406 42.050781 "/>
<path style=" stroke:none;fill-rule:nonzero;fill:rgb(100%,100%,100%);fill-opacity:0.392157;" d="M 23.816406 4.34375 C 13.371094 4.34375 4.960938 12.753906 4.960938 23.199219 C 4.960938 23.257812 4.960938 23.320312 4.960938 23.382812 C 5.0625 13.023438 13.433594 4.714844 23.816406 4.714844 C 34.199219 4.714844 42.570312 13.023438 42.667969 23.382812 C 42.667969 23.320312 42.667969 23.257812 42.667969 23.199219 C 42.667969 12.753906 34.257812 4.34375 23.816406 4.34375 Z M 23.816406 4.34375 "/>
<path style=" stroke:none;fill-rule:nonzero;fill:rgb(12.941177%,12.941177%,12.941177%);fill-opacity:1;" d="M 23.816406 4.203125 C 13.292969 4.203125 4.820312 12.675781 4.820312 23.199219 C 4.820312 33.71875 13.292969 42.191406 23.816406 42.191406 C 34.335938 42.191406 42.808594 33.71875 42.808594 23.199219 C 42.808594 12.675781 34.335938 4.203125 23.816406 4.203125 Z M 23.816406 4.484375 C 34.183594 4.484375 42.527344 12.828125 42.527344 23.199219 C 42.527344 33.566406 34.183594 41.910156 23.816406 41.910156 C 13.445312 41.910156 5.101562 33.566406 5.101562 23.199219 C 5.101562 12.828125 13.445312 4.484375 23.816406 4.484375 Z M 23.816406 4.484375 "/>
<path style=" stroke:none;fill-rule:nonzero;fill:url(#linear2);" d="M 22.824219 11.289062 C 22.273438 11.289062 21.832031 11.734375 21.832031 12.28125 L 21.832031 20.382812 L 14.335938 17.710938 C 13.816406 17.527344 13.25 17.796875 13.066406 18.3125 L 12.402344 20.183594 C 12.214844 20.703125 12.484375 21.265625 13.003906 21.453125 L 20.625 24.167969 L 15.570312 30.605469 C 15.234375 31.035156 15.308594 31.65625 15.738281 31.996094 L 17.300781 33.222656 C 17.734375 33.5625 18.355469 33.488281 18.695312 33.054688 L 23.851562 26.484375 L 29.011719 33.054688 C 29.351562 33.488281 29.972656 33.5625 30.402344 33.222656 L 31.964844 31.996094 C 32.398438 31.65625 32.472656 31.035156 32.132812 30.605469 L 27.078125 24.167969 L 34.789062 21.421875 C 35.304688 21.238281 35.574219 20.671875 35.390625 20.152344 L 34.722656 18.285156 C 34.539062 17.765625 33.972656 17.496094 33.457031 17.683594 L 25.800781 20.410156 L 25.800781 12.28125 C 25.800781 11.734375 25.355469 11.289062 24.808594 11.289062 Z M 22.824219 11.289062 "/>
<path style=" stroke:none;fill-rule:nonzero;fill:rgb(100%,100%,100%);fill-opacity:1;" d="M 22.824219 11.289062 C 22.273438 11.289062 21.832031 11.734375 21.832031 12.28125 L 21.832031 13.027344 C 21.832031 12.476562 22.273438 12.035156 22.824219 12.035156 L 24.808594 12.035156 C 25.355469 12.035156 25.800781 12.476562 25.800781 13.027344 L 25.800781 12.28125 C 25.800781 11.734375 25.355469 11.289062 24.808594 11.289062 Z M 33.796875 17.625 C 33.683594 17.625 33.570312 17.640625 33.457031 17.683594 L 25.800781 20.410156 L 25.800781 21.152344 L 33.457031 18.425781 C 33.570312 18.386719 33.683594 18.367188 33.796875 18.367188 C 34.203125 18.371094 34.578125 18.625 34.722656 19.027344 L 35.375 20.859375 C 35.460938 20.640625 35.472656 20.390625 35.390625 20.152344 L 34.722656 18.285156 C 34.578125 17.878906 34.203125 17.628906 33.796875 17.625 Z M 13.992188 17.65625 C 13.585938 17.65625 13.210938 17.910156 13.066406 18.3125 L 12.402344 20.183594 C 12.316406 20.421875 12.328125 20.671875 12.414062 20.886719 L 13.066406 19.058594 C 13.210938 18.652344 13.585938 18.402344 13.992188 18.398438 C 14.105469 18.398438 14.222656 18.417969 14.335938 18.457031 L 21.832031 21.128906 L 21.832031 20.382812 L 14.335938 17.710938 C 14.222656 17.671875 14.105469 17.652344 13.992188 17.65625 Z M 27.6875 24.941406 L 27.078125 25.160156 L 27.535156 25.742188 L 27.6875 25.6875 L 32.132812 31.347656 C 32.191406 31.421875 32.238281 31.503906 32.273438 31.589844 C 32.402344 31.269531 32.359375 30.894531 32.132812 30.605469 Z M 20.015625 24.941406 L 15.570312 30.605469 C 15.34375 30.894531 15.304688 31.269531 15.433594 31.589844 C 15.464844 31.503906 15.511719 31.421875 15.570312 31.347656 L 20.015625 25.6875 L 20.167969 25.742188 L 20.625 25.160156 Z M 20.015625 24.941406 "/>
<path style=" stroke:none;fill-rule:nonzero;fill:rgb(0%,0%,0%);fill-opacity:0.235294;" d="M 35.324219 20.988281 C 35.210938 21.191406 35.027344 21.359375 34.789062 21.445312 L 27.078125 24.191406 L 27.6875 24.964844 L 34.789062 22.4375 C 35.304688 22.25 35.574219 21.6875 35.390625 21.167969 Z M 12.464844 21.015625 L 12.402344 21.199219 C 12.214844 21.714844 12.484375 22.28125 13.003906 22.464844 L 20.015625 24.964844 L 20.625 24.191406 L 13.003906 21.472656 C 12.761719 21.390625 12.578125 21.222656 12.464844 21.015625 Z M 23.851562 26.507812 L 18.695312 33.078125 C 18.355469 33.507812 17.734375 33.585938 17.300781 33.246094 L 15.738281 32.019531 C 15.636719 31.9375 15.554688 31.839844 15.492188 31.734375 C 15.25 32.15625 15.34375 32.703125 15.738281 33.011719 L 17.300781 34.238281 C 17.734375 34.578125 18.355469 34.5 18.695312 34.070312 L 23.851562 27.5 L 29.011719 34.070312 C 29.351562 34.5 29.972656 34.578125 30.402344 34.238281 L 31.964844 33.011719 C 32.359375 32.703125 32.457031 32.15625 32.210938 31.734375 C 32.148438 31.839844 32.066406 31.9375 31.964844 32.019531 L 30.402344 33.246094 C 29.972656 33.585938 29.351562 33.507812 29.011719 33.078125 Z M 23.851562 26.507812 "/>
<path style="fill:none;stroke-width:11.338583;stroke-linecap:round;stroke-linejoin:round;stroke:rgb(12.941177%,12.941177%,12.941177%);stroke-opacity:1;stroke-miterlimit:4;" d="M 920.069666 455.074677 C 897.867061 455.074677 880.073484 473.025719 880.073484 495.070859 L 880.073484 821.653863 L 577.8976 713.947607 C 556.954717 706.546739 534.12225 717.411843 526.721382 738.197261 L 499.952283 813.623133 C 492.393949 834.566016 503.259054 857.241017 524.201937 864.799351 L 831.41671 974.237725 L 627.65663 1233.740516 C 614.114616 1251.061698 617.106456 1276.098678 634.427638 1289.798158 L 697.413752 1339.242258 C 714.892399 1352.941738 739.929379 1349.949897 753.628859 1332.471251 L 961.483037 1067.614639 L 1169.49468 1332.471251 C 1183.194159 1349.949897 1208.23114 1352.941738 1225.552321 1339.242258 L 1288.538436 1289.798158 C 1306.017083 1276.098678 1309.008923 1251.061698 1295.309443 1233.740516 L 1091.549363 974.237725 L 1402.385838 863.539629 C 1423.171255 856.13876 1434.03636 833.306294 1426.635492 812.363411 L 1399.708928 737.095004 C 1392.308059 716.152121 1369.475593 705.287016 1348.690175 712.84535 L 1040.058214 822.75612 L 1040.058214 495.070859 C 1040.058214 473.025719 1022.107172 455.074677 1000.062032 455.074677 Z M 920.069666 455.074677 " transform="matrix(0.0248071,0,0,0.0248071,0,0)"/>
</g>
</svg>
